src/16/actions/view-calendar-time-spent.svg

<svg xmlns="http://www.w3.org/2000/svg" viewBox="0 0 16 16"><path d="M2 2v12h12V2h-2v2h-2V2H6v2H4V2H2zm1 3h10v8H3V5zm1 1v6h2V6H4zm3 2v4h2V8H7zm3 2v2h2v-2h-2z" fill="currentColor" color="#5d656b"/></svg>

<svg xmlns="http://www.w3.org/2000/svg" viewBox="0 0 16 16">
  <defs id="defs3051">
    <style type="text/css" id="current-color-scheme">
      .ColorScheme-Text {
        color:#5d656b;
      }
      </style>
  </defs>
 <path style="fill:currentColor;fill-opacity:1;stroke:none" 
       d="M 2 2 L 2 14 L 14 14 L 14 2 L 12 2 L 12 4 L 10 4 L 10 2 L 6 2 L 6 4 L 4 4 L 4 2 L 2 2 z M 3 5 L 13 5 L 13 13 L 3 13 L 3 5 z M 4 6 L 4 12 L 6 12 L 6 6 L 4 6 z M 7 8 L 7 12 L 9 12 L 9 8 L 7 8 z M 10 10 L 10 12 L 12 12 L 12 10 L 10 10 z "
     class="ColorScheme-Text"
     />
</svg>
